**kern	**kern
*part1	*part1
*staff2	*staff1
*I"Piano	*
*clefF4	*clefG2
*k[f#c#g#d#a#]	*k[f#c#g#d#a#]
=1	=1
*^	*
4An	2.BB	8d#L 8f#
.	.	8B
4A	.	8d# 8f#
.	.	8B
4G#	.	8c##X 8e#X
.	.	8BJ
*v	*v	*
=	=
4An	8d#L 8f#
.	8B
4A	8d# 8f#
.	8B
4BB	8d# 8f##X
.	8BJ
=	=
4EE	(8g#L
.	8e
4BB	8B
.	8G#
4E	8B
.	8eJ
=	=
4CC#	8g#L
.	8e
4GG#	8c#
.	8G#
4C#	8c#
.	8eJ
=	=
4GG#	8g#L
.	8d#
4D#	8B
.	8G#
4G#	8B
.	8d#J)
=	=
4GG#	8g#L
.	8d#
4D#	8B
.	8G#
4G#	8B
.	8d#J
=	=
4GG#	8bL
.	8e#X
4C#	8c#
.	8B
4G#	8c#
.	8e#J
=	=
*-	*-
!!!system-decoration: {(s1,s2)}
